www/assets/icons/downloading.svg

<svg width="24" height="24" viewBox="0 0 24 24" xmlns="http://www.w3.org/2000/svg" fill='currentColor'><path d="M18.345 4.26005C16.865 3.05005 15.035 2.25005 13.025 2.05005V4.07005C14.485 4.25005 15.815 4.83005 16.925 5.69005L18.345 4.26005ZM19.955 11H21.975C21.775 8.99005 20.975 7.16005 19.765 5.68005L18.335 7.10005C19.195 8.21005 19.775 9.54005 19.955 11ZM18.335 16.9L19.765 18.33C20.975 16.85 21.775 15.01 21.975 13.01H19.955C19.775 14.46 19.195 15.79 18.335 16.9ZM13.025 19.93V21.9501C15.035 21.75 16.865 20.9501 18.345 19.74L16.915 18.31C15.815 19.17 14.485 19.75 13.025 19.93ZM13.025 12V7.00005H11.025V12H7.02502L12.025 17L17.025 12H13.025ZM11.025 19.93V21.9501C5.97502 21.4501 2.02502 17.19 2.02502 12C2.02502 6.81005 5.97502 2.55005 11.025 2.05005V4.07005C7.07502 4.56005 4.02502 7.92005 4.02502 12C4.02502 16.08 7.07502 19.4401 11.025 19.93Z"/></svg>

<svg xmlns="http://www.w3.org/2000/svg" width="24" height="24" viewBox="0 0 24 24" fill='currentColor'><path d="M18.345 4.26a9.95 9.95 0 0 0-5.32-2.21v2.02c1.46.18 2.79.76 3.9 1.62zm1.61 6.74h2.02c-.2-2.01-1-3.84-2.21-5.32l-1.43 1.42a7.94 7.94 0 0 1 1.62 3.9m-1.62 5.9 1.43 1.43a10 10 0 0 0 2.21-5.32h-2.02a7.95 7.95 0 0 1-1.62 3.89m-5.31 3.03v2.02c2.01-.2 3.84-1 5.32-2.21l-1.43-1.43c-1.1.86-2.43 1.44-3.89 1.62m0-7.93V7h-2v5h-4l5 5 5-5zm-2 7.93v2.02c-5.05-.5-9-4.76-9-9.95s3.95-9.45 9-9.95v2.02c-3.95.49-7 3.85-7 7.93s3.05 7.44 7 7.93"/></svg>
